X:1
T:The Coming of the Kingdom Draweth Near!
T:The Coming of the Kingdom Draweth Near!
T:James McGranahan
T:Daniel Webster Whittle, 1883, alt.
T:Public Domain Courtesy of the Cyber Hymnal™
T:Public Domain Courtesy of the Cyber Hymnal™
T:Public Domain Courtesy of the Cyber Hymnal™
C:James McGranahan
Z:Public Domain
Z:Courtesy of the Cyber Hymnal™
%%score 1 ( 2 3 ) ( 4 5 )
L:1/8
Q:1/4=92
M:4/4
K:Bb
V:1 treble-8 
V:2 treble 
V:3 treble 
V:4 bass 
V:5 bass 
V:1
 z2 | z8 | z8 | z8 | z8 | z8 | z8 | z8 | z6 ||"^Refrain" c>d | eeee ecfe | d6 d>c | BBBB BBAB | %13
w: |||||||||Oh, the|com- ing of the king- dom draw- eth|near! Oh, the|com- ing of the king- dom draw- eth|
 c6 AA | B<FFB B2 B>B | BBBB (GB)BB | B2 BB BAB>F | F4 |] %18
w: near; Be thou|rea- dy, O my soul, for the|trum- pet soon may roll, * And the|King in His glo- ry shall ap-|pear!|
V:2
 [DF][DF] | [DB][DB][DB][DB] [Ec][DB][FA][EG] | [DF]>[EG] [DF][CE] [B,D]2 [DF][DF] | %3
w: 1.~There’s a|glor- ious king- dom wai- ting In the|land be- yond the sky, Where the|
w: 2.~’Tis the|hope of yon- der king- dom, And the|glo- ry there pre- pared, And the|
w: 3.~With the|com- ing of the king- dom, We shall|see our bless- èd Lord, For the|
w: 4.~Oh, the|world is grow- ing wea- ry, It has|wait- ed now so long, And the|
 [DB][DB][DB][DB] [DB][DB][DA][DB] | [Ec]6 F[EF] | [DB][DB][DB][DB] [Dc][DB][FA][EG] | %6
w: saints have all been ga- thering year by|year. And the|days are swift- ly pass- ing That will|
w: look- ing for the Sav- ior to ap-|pear; That de-|liv- ers us from bond- age To the|
w: King be- fore the king- dom must ap-|pear; Hal- le-|lu- jah to His na- me, Who re-|
w: hearts of men are fail- ing them for|fear; Let us|tell them of the king- dom, Let us|
 [DF]>[EG] [DF][CE] [B,D]2 [DF][DF] | [EG][EA][FB][Gc] [Fd][Ec][EG][EA] | [DB]6 || [FA]>[FB] | %10
w: bring the king- dom nigh, For the|com- ing of the king- dom draw- eth|near!||
w: world that once en- snared, For the|com- ing of the king- dom draw- eth|near!|Oh, the|
w: deemed us by His blood! For the|com- ing of the king- dom draw- eth|near!||
w: cheer them with the song, That the|com- ing of the king- dom draw- eth|near!||
 [Ac][Ac][Ac][Ac] [Ac][Ae][Bd][Fc] | [FB]6 [FB]>[Fc] | [Fd][Fd][Fd][Fd] [Fd][Ff][Fe][Fd] | %13
w: |||
w: com- ing of the king- dom draw- eth|near! Oh, the|com- ing of the king- dom draw- eth|
w: |||
w: |||
 c6 F[EF] | [DF]<[DB] [DB][Ec] [Fd]2 [_Af]>[Af] | [Ge][Gd][Gc][GB] ([Ec][GB])[FA][EG] | %16
w: |||
w: near; Be thou|rea- dy, O my soul, for the|trum- pet soon may roll, * And the|
w: |||
w: |||
 [DF]2 [Fd][Fd] [Fd][Ec] [DB]>[CA] | [DB]4 |] %18
w: ||
w: King in His glo- ry shall ap-|pear!|
w: ||
w: ||
V:3
 x2 | x8 | x8 | x8 | x6 F x | x8 | x8 | x8 | x6 || x2 | x8 | x8 | x8 | (FGABAG)F x | x8 | x8 | x8 | %17
 x4 |] %18
V:4
 [B,,B,][B,,B,] | [B,,F,][B,,F,][B,,F,][B,,F,] [B,,F,][B,,F,][B,,B,][B,,B,] | %2
 [B,,B,]>[B,,B,] [B,,B,][B,,F,] [B,,F,]2 [B,,B,][B,,B,] | %3
 [B,,F,][B,,F,][B,,F,][B,,F,] G,G,[D,^F,]G, | [F,A,]6 F,F, | %5
 [B,,F,][B,,F,][B,,F,][B,,F,] [B,,F,][B,,F,][B,,B,][B,,B,] | %6
 [B,,B,]>[B,,B,] [B,,B,][B,,F,] [B,,F,]2 [B,,B,][B,,B,] | [E,B,][C,C][D,B,][E,B,] [F,B,]F,F,F, | %8
 [B,,F,]6 || F,>F, | F,F,F,F, F,F,F,F, | (B,,2 D,F, B,2) F,>F, | B,,B,,B,,B,, B,,D,C,B,, | %13
 (F,=E,F,G,F,_E,)D,C, | B,,<B,, B,,B,, B,,2 D,>D, | E,E,E,E, E,2 E,E, | F,2 F,F, F,F, F,>F, | %17
 B,,4 |] %18
V:5
 x2 | x8 | x8 | x4 G,G,G, x | x6 F,F, | x8 | x8 | x5 F,F,F, | x6 || x2 | x8 | x8 | x8 | x8 | x8 | %15
 x8 | x8 | x4 |] %18

